src/images/icons/fb.svg

<svg fill="none" height="80" viewBox="0 0 78 80" width="78" xmlns="http://www.w3.org/2000/svg"><path d="m0 0v80h41.5397v-30.9023h-10.1545v-12.6152h10.1545v-10.5945c0-7.7051 6.09-13.9513 13.6025-13.9513h10.6158v11.3439h-7.5961c-2.3871 0-4.3223 1.9849-4.3223 4.4332v8.7689h11.7276l-1.6208 12.6151h-10.1068v30.9022h24.1604v-80z" fill="#fcfb63"/></svg>

<svg width="78" height="80" viewBox="0 0 78 80" fill="none" xmlns="http://www.w3.org/2000/svg">
<path d="M0 0V80H41.5398V49.0977H31.3852V36.4825H41.5398V25.888C41.5398 18.1829 47.6297 11.9367 55.1422 11.9367H65.758V23.2806H58.1619C55.7748 23.2806 53.8396 25.2655 53.8396 27.7138V36.4827H65.5672L63.9464 49.0978H53.8396V80H78V0H0Z" fill="white"/>
</svg>
